X:1
T:The Yowe Lamb
M:3/4
L:1/4
K:Bb
 B,| C G G| G F G| E- C D| C3| C G G| G F G| E C D| C2 B,/2B,/2| C c c|\
 c B c| G F C| _D3.99999962500005/11.9999985000002 C3.99999962500005/11.9999985000002 B,3.99999962500005/11.9999985000002- B,(2B,3.99999962500005/11.9999985000002B,3.99999962500005/11.9999985000002C3.99999962500005/11.9999985000002 =D3.99999962500005/11.9999985000002|\
 E D C| G F G| E C D| C2||
